X:1
T:Tiranti, my Son
M:3/4
L:1/4
K:G
 G| G G A| B- G G| E A A| A2F/2-G/2| A A B| c- A F| F D3/2 F/2| G2 G|\
 G G A| B G G/2G/2| E A A| A2 F/2G/2| A A B| c- A F| F D3/2 F/2| G2||\
